static/img/kroki/5d9cc90d743ba8b60e0c84730bc79de0.svg

<?xml version="1.0" encoding="us-ascii" standalone="no"?><svg xmlns="http://www.w3.org/2000/svg" xmlns:xlink="http://www.w3.org/1999/xlink" contentStyleType="text/css" height="252px" preserveAspectRatio="none" style="width:427px;height:252px;" version="1.1" viewBox="0 0 427 252" width="427px" zoomAndPan="magnify"><defs/><g><!--class aws_backup_protected_resource--><g id="elem_aws_backup_protected_resource"><rect codeLine="23" fill="#3D176E" height="39.7891" id="aws_backup_protected_resource" rx="2.5" ry="2.5" style="stroke:#000D19;stroke-width:0.5;" width="311" x="74" y="7"/><ellipse cx="89" cy="26.8945" fill="#ADD1B2" rx="11" ry="11" style="stroke:#181818;stroke-width:1.0;"/><path d="M91.9688,32.5352 Q91.3906,32.832 90.75,32.9727 Q90.1094,33.1289 89.4063,33.1289 Q86.9063,33.1289 85.5781,31.4883 Q84.2656,29.832 84.2656,26.707 Q84.2656,23.582 85.5781,21.9258 Q86.9063,20.2695 89.4063,20.2695 Q90.1094,20.2695 90.75,20.4258 Q91.4063,20.582 91.9688,20.8789 L91.9688,23.5977 Q91.3438,23.0195 90.75,22.7539 Q90.1563,22.4727 89.5313,22.4727 Q88.1875,22.4727 87.5,23.5508 Q86.8125,24.6133 86.8125,26.707 Q86.8125,28.8008 87.5,29.8789 Q88.1875,30.9414 89.5313,30.9414 Q90.1563,30.9414 90.75,30.6758 Q91.3438,30.3945 91.9688,29.8164 L91.9688,32.5352 Z " fill="#000000"/><text fill="#D9B8FF" font-family="Helvetica" font-size="17" lengthAdjust="spacing" textLength="269" x="108" y="32.7798">aws_backup_protected_resource</text></g><!--class aws_efs_access_point--><g id="elem_aws_efs_access_point"><rect codeLine="26" fill="#3D176E" height="39.7891" id="aws_efs_access_point" rx="2.5" ry="2.5" style="stroke:#000D19;stroke-width:0.5;" width="221" x="7" y="206.58"/><ellipse cx="22" cy="226.4745" fill="#ADD1B2" rx="11" ry="11" style="stroke:#181818;stroke-width:1.0;"/><path d="M24.9688,232.1152 Q24.3906,232.412 23.75,232.5527 Q23.1094,232.7089 22.4063,232.7089 Q19.9063,232.7089 18.5781,231.0683 Q17.2656,229.412 17.2656,226.287 Q17.2656,223.162 18.5781,221.5058 Q19.9063,219.8495 22.4063,219.8495 Q23.1094,219.8495 23.75,220.0058 Q24.4063,220.162 24.9688,220.4589 L24.9688,223.1777 Q24.3438,222.5995 23.75,222.3339 Q23.1563,222.0527 22.5313,222.0527 Q21.1875,222.0527 20.5,223.1308 Q19.8125,224.1933 19.8125,226.287 Q19.8125,228.3808 20.5,229.4589 Q21.1875,230.5214 22.5313,230.5214 Q23.1563,230.5214 23.75,230.2558 Q24.3438,229.9745 24.9688,229.3964 L24.9688,232.1152 Z " fill="#000000"/><text fill="#D9B8FF" font-family="Helvetica" font-size="17" lengthAdjust="spacing" textLength="179" x="41" y="232.3598">aws_efs_access_point</text></g><!--class aws_efs_file_system--><g id="elem_aws_efs_file_system"><rect codeLine="29" fill="#3D176E" height="39.7891" id="aws_efs_file_system" rx="2.5" ry="2.5" style="stroke:#000D19;stroke-width:0.5;" width="212" x="123.5" y="106.79"/><ellipse cx="138.5" cy="126.6845" fill="#ADD1B2" rx="11" ry="11" style="stroke:#181818;stroke-width:1.0;"/><path d="M141.4688,132.3252 Q140.8906,132.622 140.25,132.7627 Q139.6094,132.9189 138.9063,132.9189 Q136.4063,132.9189 135.0781,131.2783 Q133.7656,129.622 133.7656,126.497 Q133.7656,123.372 135.0781,121.7158 Q136.4063,120.0595 138.9063,120.0595 Q139.6094,120.0595 140.25,120.2158 Q140.9063,120.372 141.4688,120.6689 L141.4688,123.3877 Q140.8438,122.8095 140.25,122.5439 Q139.6563,122.2627 139.0313,122.2627 Q137.6875,122.2627 137,123.3408 Q136.3125,124.4033 136.3125,126.497 Q136.3125,128.5908 137,129.6689 Q137.6875,130.7314 139.0313,130.7314 Q139.6563,130.7314 140.25,130.4658 Q140.8438,130.1845 141.4688,129.6064 L141.4688,132.3252 Z " fill="#000000"/><text fill="#D9B8FF" font-family="Helvetica" font-size="17" lengthAdjust="spacing" textLength="170" x="157.5" y="132.5698">aws_efs_file_system</text></g><!--class aws_kms_key--><g id="elem_aws_kms_key"><rect codeLine="32" fill="#3D176E" height="39.7891" id="aws_kms_key" rx="2.5" ry="2.5" style="stroke:#000D19;stroke-width:0.5;" width="158" x="262.5" y="206.58"/><ellipse cx="277.5" cy="226.4745" fill="#ADD1B2" rx="11" ry="11" style="stroke:#181818;stroke-width:1.0;"/><path d="M280.4688,232.1152 Q279.8906,232.412 279.25,232.5527 Q278.6094,232.7089 277.9063,232.7089 Q275.4063,232.7089 274.0781,231.0683 Q272.7656,229.412 272.7656,226.287 Q272.7656,223.162 274.0781,221.5058 Q275.4063,219.8495 277.9063,219.8495 Q278.6094,219.8495 279.25,220.0058 Q279.9063,220.162 280.4688,220.4589 L280.4688,223.1777 Q279.8438,222.5995 279.25,222.3339 Q278.6563,222.0527 278.0313,222.0527 Q276.6875,222.0527 276,223.1308 Q275.3125,224.1933 275.3125,226.287 Q275.3125,228.3808 276,229.4589 Q276.6875,230.5214 278.0313,230.5214 Q278.6563,230.5214 279.25,230.2558 Q279.8438,229.9745 280.4688,229.3964 L280.4688,232.1152 Z " fill="#000000"/><text fill="#D9B8FF" font-family="Helvetica" font-size="17" lengthAdjust="spacing" textLength="116" x="296.5" y="232.3598">aws_kms_key</text></g><!--link aws_backup_protected_resource to aws_efs_file_system--><g id="link_aws_backup_protected_resource_aws_efs_file_system"><path codeLine="35" d="M229.5,47.22 C229.5,64.36 229.5,83.27 229.5,100.41 " fill="none" id="aws_backup_protected_resource-to-aws_efs_file_system" style="stroke:#1A83AF;stroke-width:2.0;"/><polygon fill="#1A83AF" points="229.5,106.41,233.5,97.41,229.5,101.41,225.5,97.41,229.5,106.41" style="stroke:#1A83AF;stroke-width:2.0;"/></g><!--link aws_efs_file_system to aws_efs_access_point--><g id="link_aws_efs_file_system_aws_efs_access_point"><path codeLine="36" d="M207.37,147.01 C187.74,164.15 163.7186,185.1126 144.0986,202.2526 " fill="none" id="aws_efs_file_system-to-aws_efs_access_point" style="stroke:#1A83AF;stroke-width:2.0;"/><polygon fill="#1A83AF" points="139.58,206.2,148.9895,203.2912,143.3455,202.9105,143.7263,197.2664,139.58,206.2" style="stroke:#1A83AF;stroke-width:2.0;"/></g><!--link aws_efs_file_system to aws_kms_key--><g id="link_aws_efs_file_system_aws_kms_key"><path codeLine="37" d="M251.63,147.01 C271.26,164.15 295.2814,185.1126 314.9014,202.2526 " fill="none" id="aws_efs_file_system-to-aws_kms_key" style="stroke:#1A83AF;stroke-width:2.0;"/><polygon fill="#1A83AF" points="319.42,206.2,315.2737,197.2664,315.6545,202.9105,310.0105,203.2912,319.42,206.2" style="stroke:#1A83AF;stroke-width:2.0;"/></g><!--SRC=[ZP91JyCm38Nl_HMHTfwqKi6s2rAPDC5bGemRGbMQE5lK9gdibAaW_ZiT6oYqtSOX5x_FVizMjbe20rFvXXamEI15L6XRSUI6fOXkjt2bGpPIYgjasXMNplgBm8eROFTGle7NWdU9vwqMXGKYTXL8TrmK6tIrbOVn7hcbLWBh0sfHSgBKUzHvxI488-VvJAaksHqwIcGylO4Uvb027f79P2BZUHUvQ7LsxrzYhT-1nU7HLiv3BsRFufiwct9F125xY_xe9pC-SYcrtR3heFPqo8GMy4zzlUNIxVQquYM5DkG1mVccWaLlAvZFf9eEmW-du4ZiJyVuZhAyHUeggx3TH7YG6GAv6WMmZoZw341Gb74XsX-MLKvRFwGhNK96JPl0TEN2j0-QG_cyyVXb5AUp95s-Zc-7HaT3TeDDOTx_THrZHby0]--></g></svg>

<svg xmlns="http://www.w3.org/2000/svg" width="427" height="252" viewBox="0 0 427 252"><rect width="311" height="39.789" x="74" y="7" fill="#3D176E" rx="2.5" ry="2.5" style="stroke:#000d19;stroke-width:.5"/><circle cx="89" cy="26.895" r="11" fill="#ADD1B2" style="stroke:#181818;stroke-width:1"/><path d="M91.969 32.535q-.578.297-1.219.438-.64.156-1.344.156-2.5 0-3.828-1.64-1.312-1.657-1.312-4.782t1.312-4.781q1.328-1.656 3.828-1.656.703 0 1.344.156.656.156 1.219.453v2.719q-.625-.578-1.219-.844-.594-.281-1.219-.281-1.344 0-2.031 1.078-.687 1.062-.687 3.156t.687 3.172q.688 1.062 2.031 1.062.625 0 1.219-.265.594-.281 1.219-.86z"/><text x="108" y="32.78" fill="#D9B8FF" font-family="Helvetica" font-size="17" textLength="269">aws_backup_protected_resource</text><rect width="221" height="39.789" x="7" y="206.58" fill="#3D176E" rx="2.5" ry="2.5" style="stroke:#000d19;stroke-width:.5"/><circle cx="22" cy="226.475" r="11" fill="#ADD1B2" style="stroke:#181818;stroke-width:1"/><path d="M24.969 232.115q-.578.297-1.219.438-.64.156-1.344.156-2.5 0-3.828-1.64-1.312-1.657-1.312-4.782t1.312-4.781q1.328-1.656 3.828-1.656.703 0 1.344.156.656.156 1.219.453v2.719q-.625-.578-1.219-.844-.594-.281-1.219-.281-1.343 0-2.031 1.078-.687 1.062-.687 3.156t.687 3.172q.688 1.062 2.031 1.062.625 0 1.219-.265.594-.281 1.219-.86z"/><text x="41" y="232.36" fill="#D9B8FF" font-family="Helvetica" font-size="17" textLength="179">aws_efs_access_point</text><rect width="212" height="39.789" x="123.5" y="106.79" fill="#3D176E" rx="2.5" ry="2.5" style="stroke:#000d19;stroke-width:.5"/><circle cx="138.5" cy="126.684" r="11" fill="#ADD1B2" style="stroke:#181818;stroke-width:1"/><path d="M141.469 132.325q-.578.297-1.219.438-.64.156-1.344.156-2.5 0-3.828-1.64-1.312-1.657-1.312-4.782t1.312-4.781q1.328-1.656 3.828-1.656.703 0 1.344.156.656.156 1.219.453v2.719q-.625-.579-1.219-.844-.594-.281-1.219-.281-1.344 0-2.031 1.078-.687 1.062-.687 3.156t.687 3.172q.688 1.062 2.031 1.062.625 0 1.219-.265.594-.281 1.219-.86z"/><text x="157.5" y="132.57" fill="#D9B8FF" font-family="Helvetica" font-size="17" textLength="170">aws_efs_file_system</text><rect width="158" height="39.789" x="262.5" y="206.58" fill="#3D176E" rx="2.5" ry="2.5" style="stroke:#000d19;stroke-width:.5"/><circle cx="277.5" cy="226.475" r="11" fill="#ADD1B2" style="stroke:#181818;stroke-width:1"/><path d="M280.469 232.115q-.578.297-1.219.438-.64.156-1.344.156-2.5 0-3.828-1.64-1.312-1.657-1.312-4.782t1.312-4.781q1.328-1.656 3.828-1.656.703 0 1.344.156.656.156 1.219.453v2.719q-.625-.578-1.219-.844-.594-.281-1.219-.281-1.344 0-2.031 1.078-.687 1.062-.687 3.156t.687 3.172q.688 1.062 2.031 1.062.625 0 1.219-.265.594-.281 1.219-.86z"/><text x="296.5" y="232.36" fill="#D9B8FF" font-family="Helvetica" font-size="17" textLength="116">aws_kms_key</text><path fill="none" d="M229.5 47.22v53.19" style="stroke:#1a83af;stroke-width:2"/><path fill="#1A83AF" d="m229.5 106.41 4-9-4 4-4-4z" style="stroke:#1a83af;stroke-width:2"/><path fill="none" d="M207.37 147.01c-19.63 17.14-43.651 38.103-63.271 55.243" style="stroke:#1a83af;stroke-width:2"/><path fill="#1A83AF" d="m139.58 206.2 9.41-2.909-5.645-.38.381-5.645z" style="stroke:#1a83af;stroke-width:2"/><path fill="none" d="M251.63 147.01c19.63 17.14 43.651 38.103 63.271 55.243" style="stroke:#1a83af;stroke-width:2"/><path fill="#1A83AF" d="m319.42 206.2-4.146-8.934.38 5.645-5.644.38z" style="stroke:#1a83af;stroke-width:2"/></svg>
